X:1
T:Title
%%score { ( 1 4 ) | ( 2 3 ) }
L:1/8
Q:1/4=100
M:6/4
K:Eb
V:1 treble nm="Grand Piano"
V:4 treble 
V:2 bass 
V:3 bass 
V:1
 [EB]4 [B,EG]2 .[B,DF]4 [A,DF]2 | [G,B,E]4 [G,B,E]2 [B,EG]6 | [GB]4 [GB]2 c e3 [EAc]2 | %3
w: William~Kirkpatrick * * *|||
 [EGB]4 [B,EG]2 [B,DF]6 | [EG] B3 [B,EG]2 .[B,DF]4 [A,DF]2 | [G,E]4 [B,EG]2 [EGB]6 | %6
w: |||
 .[CEc]4 [EAc]2 [EGB]4 [B,EG]2 | [B,B]3 F [B,DG]2 [G,B,E]6 | [B,EG] [GB]3 [DFB]2 [GB]6 | %9
w: |||
 c e3 e2 [Ge]6 | [GB]4 [GB]2 [Ac]4 [GB]2 | G3 F E2 [DF]6 | [EG] [GB]3 [DFB]2 [GB]6 | %13
w: ||||
 c e3 e2 [Ge]6 | E4 F2 G3 c B2 | B3 [A,F] [DG]2 [B,E]6 |] %16
w: |||
V:2
 [E,G,]4 E,2 z G3 B,,2 | E,4 E,2 E,6 | z6[K:treble] .A6[K:bass] | E,4 E,2 B,,6 | %4
 z G3 E,2 z G3 B,,2 | E,4 E,2 E,6 | z[K:treble] e3 A,2[K:bass] E,4 E,2 | z2 z A, B,,2 E,6 | %8
 z E3 B,,2 [E,E]6 | [A,CE]4 [A,=B,A]2[K:bass] [E,_B,]6 | [E,E]4 [E,E]2 [E,E]4 [E,E]2 | %11
 [E,B,E]3 [D,B,] [C,=A,C]2 [B,,B,]6 | B, E3 B,,2 [E,E]6 | [A,CE]4 [A,=B,A]2[K:bass] [E,_B,]6 | %14
 [G,B,]4 [F,B,D]2 B,3 A, [E,G,E]2 | [B,,F,]4 [B,,B,]2 [E,G,]6 |] %16
V:3
 z6 .B,,6 | x12 | [E,E]4 [E,E]2[K:treble] [A,E]- [A,Ec]3[K:bass] A,2 | x12 | .E,6 .B,,6 | x12 | %6
 .A,6[K:treble][K:bass] z6 | .B,,6 z6 | .E,6 z6 | x6[K:bass] x6 | x12 | x12 | .E,6 z6 | %13
 x6[K:bass] x6 | z6 .[E,E]6 | x12 |] %16
V:4
 x12 | x12 | x12 | x12 | .B,6 z6 | x12 | x12 | .D6 z6 | x12 | x12 | x12 | x12 | x12 | x12 | x12 | %15
 .D6 z6 |] %16

